X:43
T:Country Dance. RDO.43
M:C|
L:1/8
Q:1/2=100
S:Robert D. Owen MS,Indiana,1826.
R:.Reel
O:Indiana,USA
A:New Harmony
Z:vmp.Chris Partington
K:C
f|ec ccc2ec|fedc Bagf|ec ccc2ac|BGABc2:|!
“qu”F2|EFGE FcAc|BcdB cgeg|efge aedc|BGABc2F2|!
EFGE FcAc|BcdB cgeg|agag fedc|BGABc2|]

